img/icon-linkedin.svg

<?xml version="1.0" encoding="UTF-8" standalone="no"?>
<svg
   width="33"
   height="33"
   viewBox="0 0 33 33"
   fill="none"
   version="1.1"
   id="svg1"
   sodipodi:docname="icon-linkedin.svg"
   inkscape:version="1.3.2 (091e20e, 2023-11-25, custom)"
   xmlns:inkscape="http://www.inkscape.org/namespaces/inkscape"
   xmlns:sodipodi="http://sodipodi.sourceforge.net/DTD/sodipodi-0.dtd"
   xmlns="http://www.w3.org/2000/svg"
   xmlns:svg="http://www.w3.org/2000/svg">
  <defs
     id="defs1" />
  <sodipodi:namedview
     id="namedview1"
     pagecolor="#ffffff"
     bordercolor="#000000"
     borderopacity="0.25"
     inkscape:showpageshadow="2"
     inkscape:pageopacity="0.0"
     inkscape:pagecheckerboard="0"
     inkscape:deskcolor="#d1d1d1"
     inkscape:zoom="11.313709"
     inkscape:cx="5.5684659"
     inkscape:cy="-1.4584077"
     inkscape:window-width="2560"
     inkscape:window-height="1377"
     inkscape:window-x="-8"
     inkscape:window-y="-8"
     inkscape:window-maximized="1"
     inkscape:current-layer="svg1" />
  <path
     id="Linked In - Logo"
     d="M 5.13799,1 C 3.92015,1.00003 2.88013,1.42062 2.1428,2.14823 1.40609,2.87523 1,3.88101 1,4.99738 1,7.20603 2.60968,8.99543 5.05363,8.99543 h 7.2e-4 M 8.31042,31.9999 h 0.5 v -0.5 -20.2419 -0.5 h -0.5 -6.43028 -0.5 v 0.5 20.2419 0.5 h 0.49999 z m 3.05888,-0.5023 -0.0023,0.5023 h 0.5023 6.4313 0.5 v -0.5 -11.3041 c 0,-0.6039 0.0447,-1.1231 0.1766,-1.457 l 0.0016,-0.0043 c 0.423,-1.1009 1.341,-2.141 2.8328,-2.141 1.0066,0 1.658,0.3883 2.083,1.0412 0.4473,0.6872 0.6752,1.7184 0.6752,3.0365 V 31.5 32 h 0.5 H 31.5 32 V 31.5 19.8934 c 0,-3.1894 -0.8139,-5.5989 -2.2399,-7.2174 -1.4322,-1.6256 -3.4295,-2.3932 -5.6642,-2.3932 -1.8411,0 -3.1934,0.5415 -4.1998,1.2853 -0.4279,0.3162 -0.7887,0.6656 -1.0955,1.0176 v -1.3276 -0.5 h -0.5 -6.4313 -0.5227 l 0.0232,0.5222 c 0.0415,0.9343 0.0417,5.9765 0.0312,10.8098 -0.0053,2.4112 -0.0132,4.7631 -0.0198,6.5122 -0.0033,0.8746 -0.0063,1.5984 -0.0084,2.1036 l -0.0025,0.5854 -7e-4,0.1537 -2e-4,0.0394 v 0.0099 l -10e-5,0.0025 v 6e-4 c 0,2e-4 0,2e-4 0.5,0.0025 z"
     fill="#fca311"
     stroke="#14213d"
     sodipodi:nodetypes="ccssccccccccccccccccccccsccscsccccccscscccccccccsccccccscc" />
  <path
     d="m 5.0000123,8.99543 c 1.21784,-3e-5 2.25786,-0.42062 2.99519,-1.14823 0.73671,-0.727 1.1428,-1.73278 1.1428,-2.84915 C 9.1380023,2.7894 7.5283223,1 5.0843723,1 h -7.2e-4"
     style="fill:#fca311;stroke:#14213d"
     id="path1" />
</svg>

<svg width="33" height="33" viewBox="0 0 33 33" fill="none" xmlns="http://www.w3.org/2000/svg">
<path id="Linked In - Logo" d="M9.23412 4.99732H9.23401C9.23401 6.09004 8.83982 7.09484 8.10984 7.82763C7.37804 8.56222 6.33703 8.99528 5.09636 8.99537L5.09668 8.99537L9.23412 4.99732ZM9.23412 4.99732L9.23389 4.98665M9.23412 4.99732L9.23389 4.98665M9.23389 4.98665C9.21032 3.88235 8.82013 2.88072 8.10061 2.15261C7.37842 1.42181 6.35729 1 5.13799 1H5.13798M9.23389 4.98665L5.13798 1M5.13798 1C3.92014 1.00003 2.88013 1.42062 2.1428 2.14823C1.40609 2.87523 1 3.88101 1 4.99738C1 7.20603 2.60968 8.99543 5.05363 8.99543L5.05435 8.99543M5.13798 1L5.05435 8.99543M5.05435 8.99543L5.09596 8.99537L5.05435 8.99543ZM8.31042 31.9999L8.81042 31.9999V31.4999V11.258V10.758H8.31042H1.88014H1.38014V11.258V31.4999V31.9999L1.88013 31.9999L8.31042 31.9999ZM11.3693 31.4976L11.367 31.9999H11.8693H18.3006H18.8006V31.4999V20.1958C18.8006 19.5919 18.8453 19.0727 18.9772 18.7388L18.9788 18.7345C19.4018 17.6336 20.3198 16.5935 21.8116 16.5935C22.8182 16.5935 23.4696 16.9818 23.8946 17.6347C24.3419 18.3219 24.5698 19.3531 24.5698 20.6712V31.5V32H25.0698H31.5H32V31.5V19.8934C32 16.704 31.1861 14.2945 29.7601 12.676C28.3279 11.0504 26.3306 10.2828 24.0959 10.2828C22.2548 10.2828 20.9025 10.8243 19.8961 11.5681C19.4682 11.8843 19.1074 12.2337 18.8006 12.5857V11.2581V10.7581H18.3006H11.8693H11.3466L11.3698 11.2803C11.4113 12.2146 11.4115 17.2568 11.401 22.0901C11.3957 24.5013 11.3878 26.8532 11.3812 28.6023C11.3779 29.4769 11.3749 30.2007 11.3728 30.7059L11.3703 31.2913L11.3696 31.445L11.3694 31.4844L11.3694 31.4943L11.3693 31.4968L11.3693 31.4974C11.3693 31.4976 11.3693 31.4976 11.8693 31.4999L11.3693 31.4976Z" fill="#FCA311" stroke="#14213D"/>
</svg>
